apps/site/public/mcp/logos/windsurf.svg

<svg xmlns="http://www.w3.org/2000/svg" fill="none" viewBox="0 0 48 48" height="48" width="48">
<path fill="white" d="M44.616 11.8646H44.2158C42.1094 11.8613 40.3999 13.5675 40.3999 15.674V24.1935C40.3999 25.8948 38.9939 27.2729 37.3205 27.2729C36.3263 27.2729 35.3337 26.7725 34.7448 25.9326L26.043 13.5052C25.3212 12.4733 24.1467 11.858 22.8752 11.858C20.8917 11.858 19.1067 13.5446 19.1067 15.6264V24.1952C19.1067 25.8965 17.7122 27.2746 16.0274 27.2746C15.0299 27.2746 14.039 26.7742 13.45 25.9342L3.71316 12.0287C3.49333 11.7153 2.99951 11.8695 2.99951 12.2534V19.6836C2.99951 20.0593 3.11435 20.4235 3.32927 20.7319L12.9103 34.416C13.4763 35.2247 14.3113 35.8252 15.2743 36.0435C17.6843 36.5914 19.9024 34.736 19.9024 32.3718V23.808C19.9024 22.1067 21.2806 20.7287 22.9817 20.7287C24.007 20.7287 24.9735 21.229 25.5624 22.069L34.264 34.4948C34.9875 35.5282 36.1015 36.142 37.4304 36.142C39.4582 36.142 41.1954 34.4537 41.1954 32.3735V23.8064C41.1954 22.1051 42.5735 20.727 44.2749 20.727H44.6144C44.8277 20.727 45 20.5548 45 20.3415V12.2485C45 12.0352 44.8294 11.8646 44.616 11.8646Z" clip-rule="evenodd" fill-rule="evenodd"></path>
</svg>

<svg xmlns="http://www.w3.org/2000/svg" width="48" height="48" fill="none" viewBox="0 0 48 48"><path fill="#fff" fill-rule="evenodd" d="M44.616 11.865h-.4a3.81 3.81 0 0 0-3.816 3.809v8.52c0 1.7-1.406 3.079-3.08 3.079a3.19 3.19 0 0 1-2.575-1.34l-8.702-12.428a3.85 3.85 0 0 0-3.168-1.647c-1.983 0-3.768 1.687-3.768 3.768v8.57a3.09 3.09 0 0 1-3.08 3.079c-.997 0-1.988-.5-2.577-1.34L3.713 12.028a.392.392 0 0 0-.713.224v7.43c0 .376.114.74.33 1.049l9.58 13.684c.566.809 1.401 1.41 2.364 1.628 2.41.547 4.628-1.308 4.628-3.672v-8.564a3.08 3.08 0 0 1 3.08-3.08c1.025 0 1.992.501 2.58 1.341l8.702 12.426a3.77 3.77 0 0 0 3.166 1.647c2.028 0 3.765-1.688 3.765-3.769v-8.567a3.08 3.08 0 0 1 3.08-3.079h.34A.385.385 0 0 0 45 20.34v-8.093a.38.38 0 0 0-.384-.383" clip-rule="evenodd"/></svg>
